symbolic/32x32/apps/deepin-cloud-scan-config-helper.svg

<svg xmlns="http://www.w3.org/2000/svg" width="32" height="32" version="1">
 <path style="opacity:0.2" d="M 6.375,3 C 5.61325,3 5,3.6244 5,4.4 V 17 29.6 C 5,30.3756 5.61325,31 6.375,31 h 19.25 C 26.38675,31 27,30.3756 27,29.6 V 17 4.4 C 27,3.6244 26.38675,3 25.625,3 Z"/>
 <path style="fill:#2995ff" d="M 6.375,2 C 5.61325,2 5,2.6244 5,3.4 V 16 28.6 C 5,29.3756 5.61325,30 6.375,30 h 19.25 C 26.38675,30 27,29.3756 27,28.6 V 16 3.4 C 27,2.6244 26.38675,2 25.625,2 Z"/>
 <path style="opacity:0.2" d="M 14.199219,17 A 4.1999998,4.1999998 0 0 0 10,21.199219 4.1999998,4.1999998 0 0 0 10.058594,21.896484 3.1500001,3.1500001 0 0 0 8,24.849609 3.1500001,3.1500001 0 0 0 10.75,27.970703 V 28 h 0.400391 9.708984 0.04102 v -0.002 A 3.1500001,3.1500001 0 0 0 24.009766,24.849609 3.1500001,3.1500001 0 0 0 21.990234,21.914062 4.1999998,4.1999998 0 0 0 17.800781,18 4.1999998,4.1999998 0 0 0 17.003906,18.078125 4.1999998,4.1999998 0 0 0 14.199219,17 Z"/>
 <circle style="fill:#ffffff" cx="11.15" cy="23.85" r="3.15"/>
 <circle style="fill:#ffffff" cx="14.2" cy="20.2" r="4.2"/>
 <circle style="fill:#ffffff" cx="17.8" cy="21.2" r="4.2"/>
 <circle style="fill:#ffffff" cx="20.859" cy="23.85" r="3.15"/>
 <rect style="fill:#ffffff" width="10.15" height="4.582" x="10.75" y="22.42"/>
 <rect style="opacity:0.2" width="28" height="3" x="2" y="11" rx=".7" ry=".75"/>
 <rect style="fill:#f34235" width="28" height="3" x="2" y="10" rx=".7" ry=".75"/>
 <rect style="opacity:0.5;fill:#ffffff" width="12" height="1" x="8" y="9"/>
 <rect style="opacity:0.5;fill:#ffffff" width="16" height="1" x="8" y="6"/>
 <path style="fill:#ffffff;opacity:0.2" d="M 6.375 2 C 5.61325 2 5 2.6247906 5 3.4003906 L 5 4.4003906 C 5 3.6247906 5.61325 3 6.375 3 L 25.625 3 C 26.38675 3 27 3.6247906 27 4.4003906 L 27 3.4003906 C 27 2.6247906 26.38675 2 25.625 2 L 6.375 2 z"/>
</svg>

<svg xmlns="http://www.w3.org/2000/svg" width="32" height="32" version="1"><path style="opacity:.2" d="M6.375 3C5.613 3 5 3.624 5 4.4v25.2c0 .776.613 1.4 1.375 1.4h19.25c.762 0 1.375-.624 1.375-1.4V4.4c0-.776-.613-1.4-1.375-1.4z"/><path style="fill:#2995ff" d="M6.375 2C5.613 2 5 2.624 5 3.4v25.2c0 .776.613 1.4 1.375 1.4h19.25c.762 0 1.375-.624 1.375-1.4V3.4c0-.776-.613-1.4-1.375-1.4z"/><path style="opacity:.2" d="M14.2 17a4.2 4.2 0 0 0-4.2 4.2 4.2 4.2 0 0 0 .059.696A3.15 3.15 0 0 0 8 24.85a3.15 3.15 0 0 0 2.75 3.12V28H20.9v-.002a3.15 3.15 0 0 0 3.11-3.148 3.15 3.15 0 0 0-2.02-2.936A4.2 4.2 0 0 0 17.8 18a4.2 4.2 0 0 0-.796.078A4.2 4.2 0 0 0 14.199 17z"/><circle style="fill:#fff" cx="11.15" cy="23.85" r="3.15"/><circle style="fill:#fff" cx="14.2" cy="20.2" r="4.2"/><circle style="fill:#fff" cx="17.8" cy="21.2" r="4.2"/><circle style="fill:#fff" cx="20.859" cy="23.85" r="3.15"/><path style="fill:#fff" d="M10.75 22.42H20.9v4.582H10.75z"/><rect style="opacity:.2" width="28" height="3" x="2" y="11" rx=".7" ry=".75"/><rect style="fill:#f34235" width="28" height="3" x="2" y="10" rx=".7" ry=".75"/><path style="opacity:.5;fill:#fff" d="M8 9h12v1H8zM8 6h16v1H8z"/><path style="fill:#fff;opacity:.2" d="M6.375 2C5.613 2 5 2.625 5 3.4v1C5 3.625 5.613 3 6.375 3h19.25C26.387 3 27 3.625 27 4.4v-1c0-.775-.613-1.4-1.375-1.4H6.375z"/></svg>
